src/assets/img/wave.svg

<svg viewBox="0 0 1440 320" xmlns="http://www.w3.org/2000/svg"><path d="m0 160 48-16c48-16 144-48 240-64s192-16 288 26.7c96 42.3 192 128.3 288 122.6 96-5.3 192-101.3 288-122.6 96-21.7 192 32.3 240 58.6l48 26.7v-192h-48c-48 0-144 0-240 0s-192 0-288 0-192 0-288 0-192 0-288 0-192 0-240 0h-48z" fill="#f3f4f5"/></svg>

<?xml version="1.0" standalone="no"?><svg xmlns="http://www.w3.org/2000/svg" viewBox="0 0 1440 320"><path fill="#f3f4f5" fill-opacity="1" d="M0,160L48,144C96,128,192,96,288,80C384,64,480,64,576,106.7C672,149,768,235,864,229.3C960,224,1056,128,1152,106.7C1248,85,1344,139,1392,165.3L1440,192L1440,0L1392,0C1344,0,1248,0,1152,0C1056,0,960,0,864,0C768,0,672,0,576,0C480,0,384,0,288,0C192,0,96,0,48,0L0,0Z"></path></svg>
